svg/furkot/silkcons/icons.svg

<svg height="512" viewBox="0 0 512 512" width="512"><path d="m288 512v-224h224v224zm160-160h-96v96h96zm-160-352h224v224h-224zm64 160h96v-96h-96zm-352 128h224v224h-224zm64 160h96v-96h-96zm-64-448h224v224h-224zm64 160h96v-96h-96z"/></svg>

<svg width="512" height="512" viewBox="0 0 512 512" data-tags="icons, thumbnails, grid, tiles" style="margin-left:2px;margin-top:2px"><path d="M 288,512L 288,288 l 224,0 l0,224 L 288,512 z M 448,352l-96,0 l0,96 l 96,0 L 448,352 z M 288,0l 224,0 l0,224 L 288,224 L 288,0 z M 352,160l 96,0 L 448,64 l-96,0 L 352,160 z M0,288l 224,0 l0,224 L0,512 L0,288 z M 64,448l 96,0 l0-96 L 64,352 L 64,448 z M0,0l 224,0 l0,224 L0,224 L0,0 z M 64,160l 96,0 L 160,64 L 64,64	L 64,160 z"/></svg>
